Origami/64x64/apps/playonlinux.svg

<svg width="64" height="64" version="1.1" viewBox="0 0 64 64" xmlns="http://www.w3.org/2000/svg">
 <g transform="matrix(1.9500056 0 0 1.9499514 .8006813 1.800699)" style="opacity:.2">
  <path d="m16.152 16.049c2.9826 5.4284 1.6086 15.754-3.5984 12.746-1.5225-0.88067-2.1166-1.8066-2.2172-2.6715-0.7993 0.34619-1.8973 0.29584-3.4235-0.58285-5.7828-3.3387 3.0463-9.3606 9.2354-9.4896"/>
  <path d="m16.152 16.049c0.20953-0.0045 0.42142-0.01601 0.63507-0.03432 6.101-0.524 13.637-6.5524 8.604-9.4557-1.524-0.8782-2.623-0.9298-3.422-0.5845-0.1-0.8653-0.693-1.791-2.217-2.6733-5.526-3.1907-6.502 6.4008-3.975 11.992 0.11728 0.25942 0.06692 0.53942 0.19918 0.77994"/>
  <path d="m15.951 16.102c0.13122 6.1925 6.4842 14.448 9.4893 9.2391 0.8782-1.5239 0.92972-2.6228 0.58441-3.4222 0.86531-0.09984 1.791-0.69244 2.6734-2.2165 3.3387-5.7828-7.3184-6.5834-12.743-3.6006"/>
  <path d="m15.951 16.102c-5.428 2.983-15.754 1.609-12.746-3.598 0.8812-1.523 1.8071-2.117 2.672-2.217-0.3462-0.7997-0.2958-1.8977 0.5829-3.4238 3.3387-5.7828 9.3601 3.0462 9.4901 9.2358"/>
 </g>
 <path d="m32.087891 32.109375c-0.063387 0.003789-0.12647 0.007206-0.189453 0.009766 6.06e-4 0.024462 0.003393 0.049798 0.003906 0.074218l0.001953 0.00586h0.009765c0.05644-0.031033 0.116814-0.059231 0.173829-0.089844zm-0.183594 0.089844c-3.234188 1.777324-7.357915 2.750658-11.361328 2.970703-8.276346 3.983889-14.02925 10.949134-6.261719 15.433594 2.976099 1.713403 5.117142 1.811772 6.675781 1.136718 0.196171 1.686513 1.353382 3.491721 4.322266 5.208985 6.894815 3.982912 10.331266-4.025308 10.013672-12.888672-1.965152-3.703615-3.306536-7.985276-3.388672-11.861328z" style="fill:#37a0f2"/>
 <path d="m32.297172 32.095468c0.408584-0.0088 0.821771-0.03122 1.23839-0.06692 11.896984-1.021777 26.592226-12.776864 16.777848-18.438158-2.971809-1.712447-5.114865-1.813065-6.672919-1.139746-0.195001-1.687293-1.351354-3.4923632-4.323163-5.2128054-10.775731-6.2217099-12.678936 12.481249-7.751272 23.383817 0.228697 0.505856 0.130495 1.051843 0.388402 1.520845" style="fill:#e74c3c"/>
 <path d="m31.905221 32.198816c0.255879 12.075074 12.644226 28.172897 18.504188 18.015795 1.712495-2.97153 1.812959-5.114332 1.139603-6.673123 1.687359-0.194683 3.49246-1.350225 5.213145-4.322067 6.510483-11.276179-14.270921-12.837311-24.848922-7.020995" style="fill:#fecd38"/>
 <path d="m31.905221 32.198816c-10.584631 5.816705-30.720389 3.137471-24.854772-7.015926 1.718345-2.969776 3.5238548-4.128047 5.2104148-4.323042-0.675092-1.559376-0.576811-3.700423 1.136658-6.676243 6.510484-11.276179 18.252248 5.939941 18.505749 18.009361" style="fill:#a4c639"/>
 <path d="m35.6875 6.0097656c-4.525922-0.2644429-6.636168 5.2644474-6.675781 11.78125 0.301622-7.594313 3.569855-13.441303 10.304687-9.5527348 2.971809 1.7204423 4.129218 3.5255978 4.324219 5.2128908 1.558054-0.673319 3.700066-0.571822 6.671875 1.140625 2.053292 1.184414 3.023853 2.635444 3.181641 4.199219 0.214396-1.941677-0.696597-3.767708-3.181641-5.201172-2.971809-1.712447-5.113821-1.811991-6.671875-1.138672-0.195001-1.687293-1.35241-3.4924485-4.324219-5.2128908-1.346966-0.7777137-2.555218-1.1657816-3.628906-1.2285156z" style="fill:#ffffff;opacity:.2"/>
 <path d="m18.246094 10.521484c-1.749806 0.09198-3.423488 1.195446-4.847656 3.66211-1.242158 2.157282-1.628942 3.871741-1.494141 5.248047 0.094804-1.186769 0.535324-2.582849 1.494141-4.248047 6.338563-10.978412 17.628908 5.04851 18.455078 17.041015 0.016482-0.008991 0.034345-0.016358 0.050781-0.02539l-0.001953-0.00586c-0.198048-9.429234-7.406943-22.000372-13.65625-21.671875zm-6.267578 10.390625c-1.604986 0.28746-3.3045752 1.466216-4.9277348 4.271485-0.8384361 1.451335-1.13002 2.743793-1.0097656 3.886718 0.0921854-0.884433 0.4069919-1.843315 1.0097656-2.886718 1.718345-2.969776 3.5243778-4.129224 5.2109378-4.324219-0.126698-0.292656-0.216549-0.611961-0.283203-0.947266z" style="fill:#ffffff;opacity:.2"/>
 <path d="m32.087891 32.109375c-0.063387 0.003789-0.12647 0.007206-0.189453 0.009766 6.06e-4 0.024462 0.003393 0.049798 0.003906 0.074218l0.001953 0.00586h0.009765c0.05644-0.031033 0.116814-0.059231 0.173829-0.089844zm-0.183594 0.089844c-3.234188 1.777324-7.357915 2.750658-11.361328 2.970703-5.774546 2.779626-10.313987 7.010805-9.896485 10.83789 0.377014-3.547402 4.621082-7.298531 9.896485-9.83789 4.003413-0.220045 8.12714-1.193379 11.361328-2.970703l-0.001953-0.00586c-5e-4 -0.02442-0.0033-0.049758-0.003906-0.074218 0.020142-8.32e-4 0.040378-0.002925 0.060546-0.003907-0.02136-0.306222-0.048292-0.614245-0.054687-0.916015zm0 1c0.082136 3.876052 1.42352 8.157713 3.388672 11.861328 0.009913 0.276652 0.005205 0.549571 0.007812 0.824219 0.013957-0.602395 0.0142-1.209901-0.007812-1.824219-1.802365-3.396818-3.067403-7.276306-3.330078-10.886719-0.016335 0.008396-0.032954 0.016663-0.048829 0.025391h-0.009765z" style="fill:#ffffff;opacity:.2"/>
 <path d="m46.140625 28.890625c-4.859167-0.017061-10.259812 1.127475-14.226563 3.308594h-0.009765c0.006848 0.323178 0.028862 0.650154 0.052734 0.978515 8.980457-4.909119 25.234239-4.523932 26.007813 2.572266 0.40087-4.649421-5.200272-6.836118-11.824219-6.859375zm5.689453 15.597656c-0.093578 0.016686-0.188352 0.042016-0.28125 0.052735 0.183871 0.425654 0.304065 0.900237 0.355469 1.417968 0.041976-0.532547 0.014784-1.021659-0.074219-1.470703z" style="fill:#ffffff;opacity:.2"/>
</svg>

<svg xmlns="http://www.w3.org/2000/svg" width="64" height="64" version="1.1" viewBox="0 0 64 64">
 <g style="opacity:0.2" transform="matrix(1.9500056,0,0,1.9499514,0.8006813,1.800699)">
  <path d="m 16.152,16.049 c 2.9826,5.4284 1.6086,15.754 -3.5984,12.746 -1.5225,-0.88067 -2.1166,-1.8066 -2.2172,-2.6715 -0.7993,0.34619 -1.8973,0.29584 -3.4235,-0.58285 -5.7828,-3.3387 3.0463,-9.3606 9.2354,-9.4896"/>
  <path d="m 16.152,16.049 c 0.20953,-0.0045 0.42142,-0.01601 0.63507,-0.03432 6.101,-0.524 13.637,-6.5524 8.604,-9.4557 -1.524,-0.8782 -2.623,-0.9298 -3.422,-0.5845 -0.1,-0.8653 -0.693,-1.791 -2.217,-2.6733 -5.526,-3.1907 -6.502,6.4008 -3.975,11.992 0.11728,0.25942 0.06692,0.53942 0.19918,0.77994"/>
  <path d="m 15.951,16.102 c 0.13122,6.1925 6.4842,14.448 9.4893,9.2391 0.8782,-1.5239 0.92972,-2.6228 0.58441,-3.4222 0.86531,-0.09984 1.791,-0.69244 2.6734,-2.2165 3.3387,-5.7828 -7.3184,-6.5834 -12.743,-3.6006"/>
  <path d="M 15.951,16.102 C 10.523,19.085 0.197,17.711 3.205,12.504 4.0862,10.981 5.0121,10.387 5.877,10.287 5.5308,9.4873 5.5812,8.3893 6.4599,6.8632 9.7986,1.0804 15.82,9.9094 15.95,16.099"/>
 </g>
 <path style="fill:#37a0f2" d="M 32.087891 32.109375 C 32.024504 32.113164 31.961421 32.116581 31.898438 32.119141 C 31.899044 32.143603 31.901831 32.168939 31.902344 32.193359 L 31.904297 32.199219 L 31.914062 32.199219 C 31.970502 32.168186 32.030876 32.139988 32.087891 32.109375 z M 31.904297 32.199219 C 28.670109 33.976543 24.546382 34.949877 20.542969 35.169922 C 12.266623 39.153811 6.5137194 46.119056 14.28125 50.603516 C 17.257349 52.316919 19.398392 52.415288 20.957031 51.740234 C 21.153202 53.426747 22.310413 55.231955 25.279297 56.949219 C 32.174112 60.932131 35.610563 52.923911 35.292969 44.060547 C 33.327817 40.356932 31.986433 36.075271 31.904297 32.199219 z"/>
 <path style="fill:#e74c3c" d="m 32.297172,32.095468 c 0.408584,-0.0088 0.821771,-0.03122 1.23839,-0.06692 C 45.432546,31.006771 60.127788,19.251684 50.31341,13.59039 47.341601,11.877943 45.198545,11.777325 43.640491,12.450644 43.44549,10.763351 42.289137,8.9582808 39.317328,7.2378386 28.541597,1.0161287 26.638392,19.719088 31.566056,30.621656 c 0.228697,0.505856 0.130495,1.051843 0.388402,1.520845"/>
 <path style="fill:#fecd38" d="m 31.905221,32.198816 c 0.255879,12.075074 12.644226,28.172897 18.504188,18.015795 1.712495,-2.97153 1.812959,-5.114332 1.139603,-6.673123 1.687359,-0.194683 3.49246,-1.350225 5.213145,-4.322067 C 63.27264,27.943242 42.491236,26.38211 31.913235,32.198426"/>
 <path style="fill:#a4c639" d="M 31.905221,32.198816 C 21.32059,38.015521 1.1848324,35.336287 7.0504492,25.18289 8.7687942,22.213114 10.574304,21.054843 12.260864,20.859848 11.585772,19.300472 11.684053,17.159425 13.397522,14.183605 19.908006,2.9074256 31.64977,20.123546 31.903271,32.192966"/>
 <path style="fill:#ffffff;opacity:0.2" d="M 35.6875 6.0097656 C 31.161578 5.7453227 29.051332 11.274213 29.011719 17.791016 C 29.313341 10.196703 32.581574 4.3497126 39.316406 8.2382812 C 42.288215 9.9587235 43.445624 11.763879 43.640625 13.451172 C 45.198679 12.777853 47.340691 12.87935 50.3125 14.591797 C 52.365792 15.776211 53.336353 17.227241 53.494141 18.791016 C 53.708537 16.849339 52.797544 15.023308 50.3125 13.589844 C 47.340691 11.877397 45.198679 11.777853 43.640625 12.451172 C 43.445624 10.763879 42.288215 8.9587235 39.316406 7.2382812 C 37.96944 6.4605675 36.761188 6.0724996 35.6875 6.0097656 z"/>
 <path style="fill:#ffffff;opacity:0.2" d="M 18.246094 10.521484 C 16.496288 10.613464 14.822606 11.71693 13.398438 14.183594 C 12.15628 16.340876 11.769496 18.055335 11.904297 19.431641 C 11.999101 18.244872 12.439621 16.848792 13.398438 15.183594 C 19.737001 4.2051817 31.027346 20.232104 31.853516 32.224609 C 31.869998 32.215618 31.887861 32.208251 31.904297 32.199219 L 31.902344 32.193359 C 31.704296 22.764125 24.495401 10.192987 18.246094 10.521484 z M 11.978516 20.912109 C 10.37353 21.199569 8.6739408 22.378325 7.0507812 25.183594 C 6.2123451 26.634929 5.9207612 27.927387 6.0410156 29.070312 C 6.133201 28.185879 6.4480075 27.226997 7.0507812 26.183594 C 8.7691262 23.213818 10.575159 22.05437 12.261719 21.859375 C 12.135021 21.566719 12.04517 21.247414 11.978516 20.912109 z"/>
 <path style="fill:#ffffff;opacity:0.2" d="M 32.087891 32.109375 C 32.024504 32.113164 31.961421 32.116581 31.898438 32.119141 C 31.899044 32.143603 31.901831 32.168939 31.902344 32.193359 L 31.904297 32.199219 L 31.914062 32.199219 C 31.970502 32.168186 32.030876 32.139988 32.087891 32.109375 z M 31.904297 32.199219 C 28.670109 33.976543 24.546382 34.949877 20.542969 35.169922 C 14.768423 37.949548 10.228982 42.180727 10.646484 46.007812 C 11.023498 42.46041 15.267566 38.709281 20.542969 36.169922 C 24.546382 35.949877 28.670109 34.976543 31.904297 33.199219 L 31.902344 33.193359 C 31.901844 33.168939 31.899044 33.143601 31.898438 33.119141 C 31.91858 33.118309 31.938816 33.116216 31.958984 33.115234 C 31.937624 32.809012 31.910692 32.500989 31.904297 32.199219 z M 31.904297 33.199219 C 31.986433 37.075271 33.327817 41.356932 35.292969 45.060547 C 35.302882 45.337199 35.298174 45.610118 35.300781 45.884766 C 35.314738 45.282371 35.314981 44.674865 35.292969 44.060547 C 33.490604 40.663729 32.225566 36.784241 31.962891 33.173828 C 31.946556 33.182224 31.929937 33.190491 31.914062 33.199219 L 31.904297 33.199219 z"/>
 <path style="fill:#ffffff;opacity:0.2" d="M 46.140625 28.890625 C 41.281458 28.873564 35.880813 30.0181 31.914062 32.199219 L 31.904297 32.199219 C 31.911145 32.522397 31.933159 32.849373 31.957031 33.177734 C 40.937488 28.268615 57.19127 28.653802 57.964844 35.75 C 58.365714 31.100579 52.764572 28.913882 46.140625 28.890625 z M 51.830078 44.488281 C 51.7365 44.504967 51.641726 44.530297 51.548828 44.541016 C 51.732699 44.96667 51.852893 45.441253 51.904297 45.958984 C 51.946273 45.426437 51.919081 44.937325 51.830078 44.488281 z"/>
</svg>
